!!!OTL: MIR IST EIN FEINES MEIDELEIN
!!!ARE: Europa, Mitteleuropa, Deutschland
!!!SCT: E0450A
!!!YEM: Copyright 1995, estate of Helmut Schaffrath.
**kern
*ICvox
*Ivox
*M4/4
*k[b-e-]
*g:
{4g
=1
4.g
8g
4g
4g
=2
4.cc
8b-
4a}
{4g
=3
4b-
4a
4g
4f#
=4
2g
4r}
{4g
=5
4.g
8g
4g
4g
=6
4.cc
8b-
4a}
{4g
=7
4b-
4a
4g
4f#
=8
2g
4r}
{4g
=9
4.a
8b-
4cc
4a
=10
4b-
4cc
4dd}
{4ee
=11
4.ffn
8ee
4dd
4cc#
=12
2dd
4r}
{4dd
=13
4dd
4dd
4dd
4dd
=14
4.cc
8b-
4a}
{4g
=15
4b-
4a
4g
4f#
=16
2.g}
==
!!!AGN: Liebes - Lied
!!!ONB: ESAC (Essen Associative Code) Database: ERK1
!!!AMT: simple quadruple
!!!AIN: vox
!!!EED: Helmut Schaffrath
!!!EEV: 1.0
*-
